src/images/framer-motion.svg

<svg viewBox="0 0 66 21" xmlns="http://www.w3.org/2000/svg" fill-rule="evenodd" clip-rule="evenodd" stroke-linejoin="round" stroke-miterlimit="2"><path d="M0 0h14v7H7L0 0zm0 7h7l7 7H7v7l-7-7V7z" fill-rule="nonzero"/><g><path d="M89.795 8.986V.397h2.596l1.558 5.859L95.49.397h2.602v8.589h-1.611V2.225l-1.705 6.761h-1.67l-1.699-6.761v6.761h-1.612zM99.422 5.787c0-.547.135-1.076.404-1.588.27-.511.652-.902 1.146-1.172a3.405 3.405 0 011.655-.404c.942 0 1.713.306 2.315.917.601.612.902 1.384.902 2.318 0 .941-.304 1.721-.911 2.34-.608.62-1.372.929-2.294.929-.57 0-1.114-.129-1.632-.387a2.653 2.653 0 01-1.181-1.133c-.269-.498-.404-1.105-.404-1.82zm1.688.088c0 .617.146 1.09.439 1.418.293.328.654.492 1.084.492.43 0 .79-.164 1.081-.492.291-.328.437-.805.437-1.43 0-.609-.146-1.078-.437-1.406a1.387 1.387 0 00-1.081-.492c-.43 0-.791.164-1.084.492-.293.328-.439.801-.439 1.418zM109.987 2.764v1.312h-1.125v2.508c0 .508.01.804.032.888a.36.36 0 00.146.208.463.463 0 00.279.082c.152 0 .373-.053.662-.158l.14 1.277a3.269 3.269 0 01-1.3.246c-.297 0-.565-.05-.803-.149-.238-.1-.413-.229-.525-.387-.111-.158-.188-.372-.231-.642-.035-.191-.053-.578-.053-1.16V4.076h-.756V2.764h.756V1.527l1.653-.96v2.197h1.125zM111.129 1.92V.397h1.647V1.92h-1.647zm0 7.066V2.764h1.647v6.222h-1.647zM114.082 5.787c0-.547.135-1.076.405-1.588a2.779 2.779 0 011.145-1.172 3.405 3.405 0 011.655-.404c.942 0 1.713.306 2.315.917.601.612.902 1.384.902 2.318 0 .941-.304 1.721-.911 2.34-.607.62-1.372.929-2.294.929-.57 0-1.114-.129-1.632-.387a2.646 2.646 0 01-1.18-1.133c-.27-.498-.405-1.105-.405-1.82zm1.688.088c0 .617.146 1.09.439 1.418.293.328.655.492 1.084.492.43 0 .79-.164 1.081-.492.291-.328.437-.805.437-1.43 0-.609-.146-1.078-.437-1.406a1.387 1.387 0 00-1.081-.492c-.429 0-.791.164-1.084.492-.293.328-.439.801-.439 1.418zM127.453 8.986h-1.646V5.811c0-.672-.035-1.107-.106-1.304a.912.912 0 00-.342-.46.986.986 0 00-.572-.164c-.285 0-.541.078-.767.234a1.185 1.185 0 00-.466.621c-.084.258-.126.735-.126 1.43v2.818h-1.646V2.764h1.529v.914c.543-.703 1.226-1.055 2.051-1.055.363 0 .695.066.996.196.3.131.528.298.682.501.155.204.262.434.323.692.06.258.09.627.09 1.107v3.867z" fill-rule="nonzero" transform="translate(-88.346 4.74) scale(1.20976)"/></g></svg>

<svg width="100%" height="100%" viewBox="0 0 66 21" version="1.1" xmlns="http://www.w3.org/2000/svg"
     xml:space="preserve"
     style="fill-rule:evenodd;clip-rule:evenodd;stroke-linejoin:round;stroke-miterlimit:2;">
    <path d="M0,0L14,0L14,7L7,7L0,0ZM0,7L7,7L14,14L7,14L7,21L0,14L0,7Z" style="fill-rule:nonzero;"/>
    <g transform="matrix(1.20976,0,0,1.20976,-88.3463,4.73926)">
        <path d="M89.795,8.986L89.795,0.397L92.391,0.397L93.949,6.256L95.49,0.397L98.092,0.397L98.092,8.986L96.481,8.986L96.481,2.225L94.776,8.986L93.106,8.986L91.407,2.225L91.407,8.986L89.795,8.986Z" style="fill-rule:nonzero;"/>
        <path d="M99.422,5.787C99.422,5.24 99.557,4.711 99.826,4.199C100.096,3.688 100.478,3.297 100.972,3.027C101.466,2.758 102.018,2.623 102.627,2.623C103.569,2.623 104.34,2.929 104.942,3.54C105.543,4.152 105.844,4.924 105.844,5.858C105.844,6.799 105.54,7.579 104.933,8.198C104.325,8.818 103.561,9.127 102.639,9.127C102.069,9.127 101.525,8.998 101.007,8.74C100.49,8.483 100.096,8.105 99.826,7.607C99.557,7.109 99.422,6.502 99.422,5.787ZM101.11,5.875C101.11,6.492 101.256,6.965 101.549,7.293C101.842,7.621 102.203,7.785 102.633,7.785C103.063,7.785 103.423,7.621 103.714,7.293C104.005,6.965 104.151,6.488 104.151,5.863C104.151,5.254 104.005,4.785 103.714,4.457C103.423,4.129 103.063,3.965 102.633,3.965C102.203,3.965 101.842,4.129 101.549,4.457C101.256,4.785 101.11,5.258 101.11,5.875Z" style="fill-rule:nonzero;"/>
        <path d="M109.987,2.764L109.987,4.076L108.862,4.076L108.862,6.584C108.862,7.092 108.872,7.388 108.894,7.472C108.915,7.556 108.964,7.625 109.04,7.68C109.116,7.735 109.209,7.762 109.319,7.762C109.471,7.762 109.692,7.709 109.981,7.604L110.121,8.881C109.739,9.045 109.305,9.127 108.821,9.127C108.524,9.127 108.256,9.077 108.018,8.978C107.78,8.878 107.605,8.749 107.493,8.591C107.382,8.433 107.305,8.219 107.262,7.949C107.227,7.758 107.209,7.371 107.209,6.789L107.209,4.076L106.453,4.076L106.453,2.764L107.209,2.764L107.209,1.527L108.862,0.567L108.862,2.764L109.987,2.764Z" style="fill-rule:nonzero;"/>
        <path d="M111.129,1.92L111.129,0.397L112.776,0.397L112.776,1.92L111.129,1.92ZM111.129,8.986L111.129,2.764L112.776,2.764L112.776,8.986L111.129,8.986Z" style="fill-rule:nonzero;"/>
        <path d="M114.082,5.787C114.082,5.24 114.217,4.711 114.487,4.199C114.756,3.688 115.138,3.297 115.632,3.027C116.126,2.758 116.678,2.623 117.287,2.623C118.229,2.623 119,2.929 119.602,3.54C120.203,4.152 120.504,4.924 120.504,5.858C120.504,6.799 120.2,7.579 119.593,8.198C118.986,8.818 118.221,9.127 117.299,9.127C116.729,9.127 116.185,8.998 115.667,8.74C115.15,8.483 114.756,8.105 114.487,7.607C114.217,7.109 114.082,6.502 114.082,5.787ZM115.77,5.875C115.77,6.492 115.916,6.965 116.209,7.293C116.502,7.621 116.864,7.785 117.293,7.785C117.723,7.785 118.083,7.621 118.374,7.293C118.665,6.965 118.811,6.488 118.811,5.863C118.811,5.254 118.665,4.785 118.374,4.457C118.083,4.129 117.723,3.965 117.293,3.965C116.864,3.965 116.502,4.129 116.209,4.457C115.916,4.785 115.77,5.258 115.77,5.875Z" style="fill-rule:nonzero;"/>
        <path d="M127.453,8.986L125.807,8.986L125.807,5.811C125.807,5.139 125.772,4.704 125.701,4.507C125.631,4.31 125.517,4.156 125.359,4.047C125.2,3.938 125.01,3.883 124.787,3.883C124.502,3.883 124.246,3.961 124.02,4.117C123.793,4.274 123.638,4.481 123.554,4.738C123.47,4.996 123.428,5.473 123.428,6.168L123.428,8.986L121.782,8.986L121.782,2.764L123.311,2.764L123.311,3.678C123.854,2.975 124.537,2.623 125.362,2.623C125.725,2.623 126.057,2.689 126.358,2.819C126.658,2.95 126.886,3.117 127.04,3.32C127.195,3.524 127.302,3.754 127.363,4.012C127.423,4.27 127.453,4.639 127.453,5.119L127.453,8.986Z" style="fill-rule:nonzero;"/>
    </g>
</svg>
